assets/images/icons/astonished-face.svg

<svg width="49" height="48" viewBox="0 0 49 48" fill="none" xmlns="http://www.w3.org/2000/svg">
<path d="M24.8602 42.57C34.9587 42.57 43.1452 34.3835 43.1452 24.285C43.1452 14.1865 34.9587 6 24.8602 6C14.7617 6 6.5752 14.1865 6.5752 24.285C6.5752 34.3835 14.7617 42.57 24.8602 42.57Z" fill="url(#paint0_radial_7_727)"/>
<path opacity="0.5" d="M24.8602 42.57C34.9587 42.57 43.1452 34.3835 43.1452 24.285C43.1452 14.1865 34.9587 6 24.8602 6C14.7617 6 6.5752 14.1865 6.5752 24.285C6.5752 34.3835 14.7617 42.57 24.8602 42.57Z" fill="url(#paint1_radial_7_727)"/>
<path d="M18.89 25.0675C19.8622 25.0675 20.6504 23.8757 20.6504 22.4056C20.6504 20.9354 19.8622 19.7437 18.89 19.7437C17.9177 19.7437 17.1295 20.9354 17.1295 22.4056C17.1295 23.8757 17.9177 25.0675 18.89 25.0675Z" fill="url(#paint2_radial_7_727)"/>
<path d="M18.89 20.6449C19.6469 20.6449 20.3017 21.2998 20.6504 22.2778C20.6249 20.8405 19.851 19.6838 18.89 19.6838C17.9289 19.6838 17.155 20.8405 17.1295 22.2778C17.4782 21.2998 18.133 20.6449 18.89 20.6449Z" fill="url(#paint3_linear_7_727)"/>
<path d="M30.8304 25.0675C31.8027 25.0675 32.5909 23.8757 32.5909 22.4056C32.5909 20.9354 31.8027 19.7437 30.8304 19.7437C29.8582 19.7437 29.0699 20.9354 29.0699 22.4056C29.0699 23.8757 29.8582 25.0675 30.8304 25.0675Z" fill="url(#paint4_radial_7_727)"/>
<path d="M30.8304 20.7047C30.0735 20.7047 29.4187 21.3595 29.0699 22.3376C29.0955 20.9003 29.8694 19.7437 30.8304 19.7437C31.7914 19.7437 32.5654 20.9003 32.5909 22.3376C32.2422 21.368 31.5874 20.7047 30.8304 20.7047Z" fill="url(#paint5_linear_7_727)"/>
<path d="M28.9169 14.5981C28.9595 13.8667 29.7759 13.45 31.1366 13.5266C32.2933 13.5946 34.7936 14.3685 36.418 16.7158C36.7157 17.1496 36.2054 17.3452 35.9078 17.0645C34.8872 16.0949 32.0722 14.7598 29.8099 14.8703C28.8914 14.9213 28.9169 14.5981 28.9169 14.5981Z" fill="url(#paint6_linear_7_727)"/>
<path d="M20.8035 14.5981C20.7609 13.8667 19.9445 13.45 18.5838 13.5266C17.4271 13.5946 14.9268 14.3685 13.3023 16.7158C13.0047 17.1496 13.515 17.3452 13.8126 17.0645C14.8332 16.0949 17.6482 14.7598 19.9105 14.8703C20.829 14.9213 20.8035 14.5981 20.8035 14.5981Z" fill="url(#paint7_linear_7_727)"/>
<path d="M24.8601 38.9302C27.1429 38.9302 28.9934 36.4589 28.9934 33.4106C28.9934 30.3623 27.1429 27.8911 24.8601 27.8911C22.5774 27.8911 20.7269 30.3623 20.7269 33.4106C20.7269 36.4589 22.5774 38.9302 24.8601 38.9302Z" fill="url(#paint8_radial_7_727)"/>
<path d="M24.8602 29.6005C26.6462 29.6005 28.194 30.9358 28.9765 32.8918C28.7808 30.0853 27.0119 27.8911 24.8602 27.8911C22.7085 27.8911 20.9396 30.0853 20.744 32.8918C21.5264 30.9358 23.0742 29.6005 24.8602 29.6005Z" fill="url(#paint9_linear_7_727)"/>
<path d="M24.8602 32.0242C25.9573 32.0242 26.9949 31.8541 27.9304 31.565C27.4201 29.8725 26.238 28.6904 24.8602 28.6904C23.4824 28.6904 22.3003 29.8811 21.79 31.565C22.7255 31.8626 23.7631 32.0242 24.8602 32.0242Z" fill="url(#paint10_radial_7_727)"/>
<defs>
<radialGradient id="paint0_radial_7_727" cx="0" cy="0" r="1" gradientUnits="userSpaceOnUse" gradientTransform="translate(21.2626 16.8747) scale(22.0585)">
<stop stop-color="#FFDF30"/>
<stop offset="1" stop-color="#FFB82E"/>
</radialGradient>
<radialGradient id="paint1_radial_7_727" cx="0" cy="0" r="1" gradientUnits="userSpaceOnUse" gradientTransform="translate(21.2626 16.8747) scale(17.3544)">
<stop stop-color="#FFE95F"/>
<stop offset="1" stop-color="#FFBB47" stop-opacity="0"/>
</radialGradient>
<radialGradient id="paint2_radial_7_727" cx="0" cy="0" r="1" gradientUnits="userSpaceOnUse" gradientTransform="translate(18.3563 22.4697) rotate(73.8539) scale(2.58353 1.6715)">
<stop offset="0.00132565" stop-color="#7A4400"/>
<stop offset="1" stop-color="#643800"/>
</radialGradient>
<linearGradient id="paint3_linear_7_727" x1="18.8904" y1="19.7262" x2="18.8904" y2="22.2077" gradientUnits="userSpaceOnUse">
<stop offset="0.00132565" stop-color="#3C2200"/>
<stop offset="1" stop-color="#512D00"/>
</linearGradient>
<radialGradient id="paint4_radial_7_727" cx="0" cy="0" r="1" gradientUnits="userSpaceOnUse" gradientTransform="translate(30.2964 22.4701) rotate(73.8539) scale(2.58353 1.6715)">
<stop offset="0.00132565" stop-color="#7A4400"/>
<stop offset="1" stop-color="#643800"/>
</radialGradient>
<linearGradient id="paint5_linear_7_727" x1="30.83" y1="19.7917" x2="30.83" y2="22.2733" gradientUnits="userSpaceOnUse">
<stop offset="0.00132565" stop-color="#3C2200"/>
<stop offset="1" stop-color="#512D00"/>
</linearGradient>
<linearGradient id="paint6_linear_7_727" x1="32.6927" y1="16.0335" x2="32.8008" y2="14.1098" gradientUnits="userSpaceOnUse">
<stop offset="0.00132565" stop-color="#3C2200"/>
<stop offset="1" stop-color="#7A4400"/>
</linearGradient>
<linearGradient id="paint7_linear_7_727" x1="17.0332" y1="16.0339" x2="16.9251" y2="14.1103" gradientUnits="userSpaceOnUse">
<stop offset="0.00132565" stop-color="#3C2200"/>
<stop offset="1" stop-color="#7A4400"/>
</linearGradient>
<radialGradient id="paint8_radial_7_727" cx="0" cy="0" r="1" gradientUnits="userSpaceOnUse" gradientTransform="translate(24.6074 33.7374) rotate(77.7577) scale(6.57768 3.30149)">
<stop offset="0.00132565" stop-color="#7A4400"/>
<stop offset="1" stop-color="#643800"/>
</radialGradient>
<linearGradient id="paint9_linear_7_727" x1="24.8603" y1="25.2937" x2="24.8603" y2="34.29" gradientUnits="userSpaceOnUse">
<stop offset="0.00132565" stop-color="#3C2200"/>
<stop offset="1" stop-color="#512D00"/>
</linearGradient>
<radialGradient id="paint10_radial_7_727" cx="0" cy="0" r="1" gradientUnits="userSpaceOnUse" gradientTransform="translate(24.8601 30.3603) rotate(0.231607) scale(6.24072 4.39848)">
<stop offset="0.00132565" stop-color="white"/>
<stop offset="0.4312" stop-color="#D3DCDD"/>
<stop offset="0.7963" stop-color="#B4C4C6"/>
<stop offset="1" stop-color="#A8BBBD"/>
</radialGradient>
</defs>
</svg>

<svg width="49" height="48" fill="none" xmlns="http://www.w3.org/2000/svg"><path d="M24.86 42.57c10.099 0 18.285-8.187 18.285-18.285S34.96 6 24.86 6C14.762 6 6.575 14.187 6.575 24.285S14.762 42.57 24.86 42.57z" fill="url(#a)"/><path opacity=".5" d="M24.86 42.57c10.099 0 18.285-8.187 18.285-18.285S34.96 6 24.86 6C14.762 6 6.575 14.187 6.575 24.285S14.762 42.57 24.86 42.57z" fill="url(#b)"/><path d="M18.89 25.067c.972 0 1.76-1.191 1.76-2.661s-.788-2.662-1.76-2.662-1.76 1.191-1.76 2.662c0 1.47.788 2.662 1.76 2.662z" fill="url(#c)"/><path d="M18.89 20.645c.757 0 1.412.655 1.76 1.633-.025-1.438-.799-2.594-1.76-2.594s-1.735 1.156-1.76 2.594c.348-.978 1.003-1.633 1.76-1.633z" fill="url(#d)"/><path d="M30.83 25.067c.973 0 1.76-1.191 1.76-2.661s-.787-2.662-1.76-2.662c-.972 0-1.76 1.191-1.76 2.662 0 1.47.788 2.662 1.76 2.662z" fill="url(#e)"/><path d="M30.83 20.705c-.756 0-1.411.655-1.76 1.633.026-1.438.8-2.594 1.76-2.594.961 0 1.735 1.156 1.76 2.594-.348-.97-1.003-1.633-1.76-1.633z" fill="url(#f)"/><path d="M28.917 14.598c.042-.731.859-1.148 2.22-1.071 1.156.068 3.657.841 5.281 3.189.298.434-.213.63-.51.348-1.02-.97-3.836-2.304-6.098-2.194-.919.051-.893-.272-.893-.272z" fill="url(#g)"/><path d="M20.803 14.598c-.042-.731-.858-1.148-2.22-1.071-1.156.068-3.656.841-5.28 3.189-.298.434.212.63.51.348 1.02-.97 3.835-2.304 6.097-2.194.919.051.893-.272.893-.272z" fill="url(#h)"/><path d="M24.86 38.93c2.283 0 4.133-2.471 4.133-5.52 0-3.048-1.85-5.519-4.133-5.519s-4.133 2.471-4.133 5.52c0 3.048 1.85 5.52 4.133 5.52z" fill="url(#i)"/><path d="M24.86 29.6c1.786 0 3.334 1.336 4.117 3.292-.196-2.807-1.965-5-4.117-5-2.151 0-3.92 2.193-4.116 5 .782-1.956 2.33-3.292 4.116-3.292z" fill="url(#j)"/><path d="M24.86 32.024c1.097 0 2.135-.17 3.07-.459-.51-1.693-1.692-2.875-3.07-2.875s-2.56 1.191-3.07 2.875c.936.298 1.973.46 3.07.46z" fill="url(#k)"/><defs><radialGradient id="a" cx="0" cy="0" r="1" gradientUnits="userSpaceOnUse" gradientTransform="translate(21.263 16.875) scale(22.0585)"><stop stop-color="#FFDF30"/><stop offset="1" stop-color="#FFB82E"/></radialGradient><radialGradient id="b" cx="0" cy="0" r="1" gradientUnits="userSpaceOnUse" gradientTransform="translate(21.263 16.875) scale(17.3544)"><stop stop-color="#FFE95F"/><stop offset="1" stop-color="#FFBB47" stop-opacity="0"/></radialGradient><radialGradient id="c" cx="0" cy="0" r="1" gradientUnits="userSpaceOnUse" gradientTransform="rotate(73.854 -5.77 23.447) scale(2.58353 1.6715)"><stop offset=".001" stop-color="#7A4400"/><stop offset="1" stop-color="#643800"/></radialGradient><radialGradient id="e" cx="0" cy="0" r="1" gradientUnits="userSpaceOnUse" gradientTransform="rotate(73.854 .2 31.39) scale(2.58353 1.6715)"><stop offset=".001" stop-color="#7A4400"/><stop offset="1" stop-color="#643800"/></radialGradient><radialGradient id="i" cx="0" cy="0" r="1" gradientUnits="userSpaceOnUse" gradientTransform="matrix(1.39477 6.4281 -3.22641 .70007 24.607 33.737)"><stop offset=".001" stop-color="#7A4400"/><stop offset="1" stop-color="#643800"/></radialGradient><radialGradient id="k" cx="0" cy="0" r="1" gradientUnits="userSpaceOnUse" gradientTransform="matrix(6.24067 .02523 -.01778 4.39844 24.86 30.36)"><stop offset=".001" stop-color="#fff"/><stop offset=".431" stop-color="#D3DCDD"/><stop offset=".796" stop-color="#B4C4C6"/><stop offset="1" stop-color="#A8BBBD"/></radialGradient><linearGradient id="d" x1="18.89" y1="19.726" x2="18.89" y2="22.208" gradientUnits="userSpaceOnUse"><stop offset=".001" stop-color="#3C2200"/><stop offset="1" stop-color="#512D00"/></linearGradient><linearGradient id="f" x1="30.83" y1="19.792" x2="30.83" y2="22.273" gradientUnits="userSpaceOnUse"><stop offset=".001" stop-color="#3C2200"/><stop offset="1" stop-color="#512D00"/></linearGradient><linearGradient id="g" x1="32.693" y1="16.034" x2="32.801" y2="14.11" gradientUnits="userSpaceOnUse"><stop offset=".001" stop-color="#3C2200"/><stop offset="1" stop-color="#7A4400"/></linearGradient><linearGradient id="h" x1="17.033" y1="16.034" x2="16.925" y2="14.11" gradientUnits="userSpaceOnUse"><stop offset=".001" stop-color="#3C2200"/><stop offset="1" stop-color="#7A4400"/></linearGradient><linearGradient id="j" x1="24.86" y1="25.294" x2="24.86" y2="34.29" gradientUnits="userSpaceOnUse"><stop offset=".001" stop-color="#3C2200"/><stop offset="1" stop-color="#512D00"/></linearGradient></defs></svg>
